images/popup-icon-close-small.svg

<svg width="20" height="20" fill="none" xmlns="http://www.w3.org/2000/svg"><path d="M20 18l-8-8 8-8-2-2-8 8-8-8-2 2 8 8-8 8 2 2 8-8 8 8 2-2z" fill="#fff"/></svg>

<svg width="20" height="20" viewBox="0 0 20 20" fill="none" xmlns="http://www.w3.org/2000/svg">
<path d="M20 18L12 10L20 2L18 0L10 8L2 0L0 2L8 10L0 18L2 20L10 12L18 20L20 18Z" fill="white"/>
</svg>
